X:1
T:Title
%%score { 1 | ( 2 3 ) }
L:1/8
M:6/4
K:Eb
V:1 treble nm="Grand Piano"
V:2 bass 
V:3 bass 
V:1
 z6 z4[Q:1/4=100] G2 | G4 G2 B4 B2 | A2 B2 c2 G4 G2 | [CF]4 C2 E4 D2 |[M:5/4] E2- E2- E6 | %5
[M:1/4] G2 |[M:6/4] G4 G2 B4 B2 | A2 B2 c2 G4 G2 | F4 B2 B4 =A2 |[M:5/4] [DB]2- [DB]2- [DB]6 | %10
[M:1/4] B2 |[M:6/4] B2 c2 [DAB]2 [Ge]4 [EB]2 | .[DB]4 [B,DA]2 [B,EG]4 [C=EG]2 | %13
 [CFA]4 [CAc]2 [=Af]4 e2 | d6- d4 c2 | B2 c2 [DAB]2 [Ge]4 B2 | B2 A2 G2 A4 c2 | %17
 e2 d2 [Ec]2 [EB]4 [DA]2 | [DA]6 [EG]4 [_DEB]2 | .[CEB]4 [CE]2 [B,EG]4 [A,DF]2 | %20
[M:5/4] [G,E]2- [G,E]2- [G,E]6 |] %21
V:2
 z6 z4 [E,B,E]2 | [E,B,E]4 [E,B,E]2 [E,G,E]4 [E,_DE]2 | .C6 z6 | %3
 [A,,A,]4 [A,,A,]2 [B,,G,B,]4 [B,,F,B,]2 |[M:5/4] [E,G,B,]2- [E,G,B,]2- [E,G,B,]6 | %5
[M:1/4] [E,B,E]2 |[M:6/4] [E,B,E]4 [E,B,E]2 [E,G,E]4 [E,_DE]2 | .C6 z6 | %8
 [F,B,D]4 [F,DF]2 [F,CE]4 [F,CE]2 |[M:5/4] [B,,B,]2- [B,,B,]2- [B,,B,]6 |[M:1/4] [A,B,D]2 | %11
[M:6/4] .[B,E]6 z6 | z2 F2 B,,2 E,4 C,2 | F,4 F,2 [F,C]4[K:treble] [=A,CF]2 | %14
 [B,F]6- [B,F]4 [A,B,D]2 | [B,E]2 E2[K:bass] F,2 [E,B,]4 [E,_DE]2 | %16
 _D2 C2 [E,B,E]2[K:treble] [A,CE]4 [A,E]2 | .C6[K:bass] z6 | [=B,,F,]6 [C,E,]4 G,,2 | %19
 z2 A2 A,,2 B,,4 B,,2 |[M:5/4] E,2- E,2- E,6 |] %21
V:3
 x12 | x12 | [E,E]2- [E,G,E]2 [E,A,E]2 [E,B,E]4 [E,B,E]2 | x12 |[M:5/4] x10 |[M:1/4] x2 | %6
[M:6/4] x12 | [E,E]2- [E,G,E]2 [E,A,E]2 [E,B,E]4 [E,B,E]2 | x12 |[M:5/4] x10 |[M:1/4] x2 | %11
[M:6/4] G,2- [G,E]2 F,2 [E,B,]4 [E,G,]2 | .[B,,F,]6 z6 | x10[K:treble] x2 | x12 | .G,6[K:bass] z6 | %16
 .[E,E]6[K:treble] z6 | [A,A]2- [A,B,A]2[K:bass] [A,,A,]2 [B,,G,]4 [B,,F,]2 | x12 | .A,,6 z6 | %20
[M:5/4] x10 |] %21

